X:153
T:Countess of Sutherland
R:Reel
C:George Jenkins
B:The Athole Collection
M:C|
L:1/8
K:B_
f|~B2 FB GBFB|EBDB Cccd|~B2 FB Ggfe|dfce dBB:|
(3f/g/a/|bfdf egce|dfBd cF Ff/g/4a/4|bfdf egce|dfce dB Bf/g/4a/4|
bfdf egce|dfBd cFFf|gfga bgfe|dfce dB~B||

